src/lib/packages/icons/src/assets/line/bug-slash.svg

<svg width="24" height="24" viewBox="0 0 24 24" fill="none" xmlns="http://www.w3.org/2000/svg">
<path d="M18.75 15C18.75 15.449 18.7041 15.888 18.6201 16.312C20.3921 16.61 21.75 18.144 21.75 20C21.75 20.414 21.414 20.75 21 20.75C20.586 20.75 20.25 20.414 20.25 20C20.25 18.811 19.3199 17.8439 18.1509 17.7649C17.0919 20.1109 14.736 21.75 12 21.75C10.486 21.75 9.00303 21.2341 7.82303 20.2971C7.49903 20.0391 7.44491 19.5679 7.70291 19.2429C7.95891 18.9199 8.43011 18.8641 8.75711 19.1221C9.48711 19.7031 10.34 20.059 11.25 20.188V16C11.25 15.586 11.586 15.25 12 15.25C12.414 15.25 12.75 15.586 12.75 16V20.1741C15.288 19.8061 17.25 17.638 17.25 15V10C17.25 9.58602 17.586 9.25002 18 9.25002C18.414 9.25002 18.75 9.58602 18.75 10V12.25H21C21.414 12.25 21.75 12.586 21.75 13C21.75 13.414 21.414 13.75 21 13.75H18.75V15ZM21.5301 3.53005L3.53006 21.5301C3.38406 21.6761 3.19203 21.75 3.00003 21.75C2.80803 21.75 2.616 21.6771 2.47 21.5301C2.177 21.2371 2.177 20.762 2.47 20.469L5.65409 17.2849C5.39109 16.5549 5.25003 15.79 5.25003 14.999V13.749H3.00003C2.58603 13.749 2.25003 13.413 2.25003 12.999C2.25003 12.585 2.58603 12.249 3.00003 12.249H5.25003V10C5.25003 9.87102 5.26891 9.75703 5.27591 9.63503C4.03591 9.33403 3.01097 8.42591 2.60697 7.18191L2.2891 6.24001C2.1571 5.84701 2.36802 5.42209 2.76102 5.28909C3.15402 5.15909 3.57897 5.36903 3.71097 5.76003L4.03104 6.70998C4.27104 7.44898 4.87601 7.97394 5.60501 8.15994C6.06001 7.11594 6.95406 6.47598 8.24906 6.30398V6.00002C8.24906 3.93202 9.93206 2.25002 11.9991 2.25002C14.0661 2.25002 15.7491 3.93202 15.7491 6.00002V6.32009C16.0041 6.35409 16.2389 6.4071 16.4619 6.4761L20.469 2.46902C20.762 2.17602 21.2371 2.17602 21.5301 2.46902C21.8231 2.76202 21.8231 3.23705 21.5301 3.53005ZM9.75003 6.25002H14.25V6.00002C14.25 4.75902 13.24 3.75002 12 3.75002C10.76 3.75002 9.75003 4.75902 9.75003 6.00002V6.25002ZM6.86209 16.0779L15.1751 7.76492C15.1131 7.76292 15.065 7.75002 15 7.75002H9.00003C7.42303 7.75002 6.75003 8.42302 6.75003 10V15C6.75003 15.367 6.78809 15.7269 6.86209 16.0779Z" fill="currentColor"/>
</svg>

<svg xmlns="http://www.w3.org/2000/svg" width="24" height="24" fill="none"><path fill="currentColor" d="M18.75 15c0 .449-.046.888-.13 1.312A3.748 3.748 0 0 1 21.75 20a.75.75 0 0 1-1.5 0c0-1.189-.93-2.156-2.1-2.235-1.058 2.346-3.414 3.985-6.15 3.985a6.74 6.74 0 0 1-4.177-1.453.75.75 0 0 1 .934-1.175 5.13 5.13 0 0 0 2.493 1.066V16a.75.75 0 0 1 1.5 0v4.174c2.538-.368 4.5-2.536 4.5-5.174v-5a.75.75 0 0 1 1.5 0v2.25H21a.75.75 0 0 1 0 1.5h-2.25V15Zm2.78-11.47-18 18a.748.748 0 0 1-1.06 0 .75.75 0 0 1 0-1.061l3.184-3.184a6.713 6.713 0 0 1-.404-2.286v-1.25H3a.75.75 0 0 1 0-1.5h2.25V10c0-.129.019-.243.026-.365a3.713 3.713 0 0 1-2.669-2.453l-.318-.942a.751.751 0 0 1 1.422-.48l.32.95c.24.739.845 1.264 1.574 1.45.455-1.044 1.35-1.684 2.644-1.856V6A3.755 3.755 0 0 1 12 2.25 3.755 3.755 0 0 1 15.75 6v.32c.255.034.49.087.713.156l4.007-4.007a.75.75 0 0 1 1.06 1.061ZM9.75 6.25h4.5V6c0-1.241-1.01-2.25-2.25-2.25A2.253 2.253 0 0 0 9.75 6v.25Zm-2.888 9.828 8.313-8.313c-.062-.002-.11-.015-.175-.015H9c-1.577 0-2.25.673-2.25 2.25v5c0 .367.038.727.112 1.078Z"/></svg>
